X:555
T:On the Trail of the Lonesome Pine
M:2/2
L:1/4
S:Colin Hume's website,  colinhume.com  - chords can also be printed below the stave.
Q:1/2=112
K:A
cB |\
"A"A2 E2 | "A"EF EC | "B7"^D2 B2- | "B7"B2 ^AB | "E"c2 BG | "E7"E2 B2 | "A"A2- "D"A2- | "A"A2 cB |
"A"A2 E2 | "A"EF EC | "B7"^D2 B2- | "B7"B4 | "B7"B2 FG | "B7"A2 F2 | "E"G2 "B7"A2 | "E7"B2 ^B2 |
"A"c4- | "A"c B2 A | "A7"Bc A B- | "A7"B c2 A | "Bm"B4- | "Bm"B A2 F | "B7"AB ^B c- | "C#7"c2 "E7"c=B |
"A"A2 E2 | "A"EF EC | "B7"^D2 B2- | "B7"B2 ^AB | "E"c2 BG | "E7"E2 B2 | "A"A2- "D"A2- | "A"A2 |]

